dist/img/icon-card-main-advantage-1.svg

<svg width="80" height="80" viewBox="0 0 80 80" fill="none" xmlns="http://www.w3.org/2000/svg">
<path d="M30 54V47.2C30 47.0895 30.0895 47 30.2 47H40M50 54V47.2C50 47.0895 49.9105 47 49.8 47H40M40 54V47" stroke="#83C150" stroke-width="2"/>
<path d="M35 47V39.2C35 39.0895 35.0895 39 35.2 39H44.8C44.9105 39 45 39.0895 45 39.2V47" stroke="#83C150" stroke-width="2"/>
<path d="M25 56V35.2C25 35.0895 25.0895 35 25.2 35H54.8C54.9105 35 55 35.0895 55 35.2V56M60 56.8V31.1293C60 31.0506 59.9538 30.9792 59.8821 30.9469L40.0821 22.0369C40.0299 22.0134 39.9701 22.0134 39.9179 22.0369L20.1179 30.9469C20.0462 30.9792 20 31.0506 20 31.1293V56.8C20 56.9105 20.0895 57 20.2 57H59.8C59.9105 57 60 56.9105 60 56.8Z" stroke="#393939" stroke-width="2"/>
<path d="M25 54C24.7239 54 24.5 54.2239 24.5 54.5C24.5 54.7761 24.7239 55 25 55V54ZM55.5 55C55.7761 55 56 54.7761 56 54.5C56 54.2239 55.7761 54 55.5 54V55ZM25 55H55.5V54H25V55Z" fill="#393939"/>
<path d="M36.5 30H43.5" stroke="#393939" stroke-linecap="round"/>
</svg>

<svg width="80" height="80" fill="none" xmlns="http://www.w3.org/2000/svg"><path d="M30 54v-6.8c0-.11.09-.2.2-.2H40m10 7v-6.8a.2.2 0 00-.2-.2H40m0 7v-7m-5 0v-7.8c0-.11.09-.2.2-.2h9.6c.11 0 .2.09.2.2V47" stroke="#83C150" stroke-width="2"/><path d="M25 56V35.2c0-.11.09-.2.2-.2h29.6c.11 0 .2.09.2.2V56m5 .8V31.13a.2.2 0 00-.118-.183l-19.8-8.91a.2.2 0 00-.164 0l-19.8 8.91a.2.2 0 00-.118.182V56.8c0 .11.09.2.2.2h39.6a.2.2 0 00.2-.2z" stroke="#393939" stroke-width="2"/><path d="M25 54a.5.5 0 000 1v-1zm30.5 1a.5.5 0 000-1v1zM25 55h30.5v-1H25v1z" fill="#393939"/><path d="M36.5 30h7" stroke="#393939" stroke-linecap="round"/></svg>
